!!!!SEGMENT: pl-wumfc--n55645_moniuszko-stanislaw--spiew-na-piec-glosow.krn
!!!cenid: 18xx:4117
!!!COM: Moniuszko, Stanisław
!!!COM-rismID: pe30008351
!!!CDT: 1819/05/05-1872/06/04
!!!CNT: Polish
!!!OTL: Śpiew na pięć głosów
!!!PDT:
!!!AGN:
!!!SMS-siglum: PL-Wumfc
!!!SMS-shelfmark: N55645
!!!SMS-shelfwork: W
!!!SMS-variant:
!!!SMS-altvar:
!!!NIFC-rismSourceID: 1001177937
!!!NIFC-rismChildID: 1001177937
!!!NIFC-islandoraID: pl-wumfc:8136
!!!URL-pdf-islandora: https://repozytorium.nifc.pl/islandora/object/pl-wumfc%3A8136/datastream/PDF/view
!!!URL-scan: https://polish.musicsources.pl/pl/lokalizacje/galeria/druki-muzyczne/12589/1 @EN{Scan on Polish Music Sources Website} @PL{Skany w portalu Dziedzictwo Muzyki Polskiej w otwartym dostępie}
!!!ONB-nifc: UWAGA: w zbiorze 1. Polonez, 2. Mazur, 3. Walc
!!!AIN: 1 bass 2 soprn 2 tenor
!!!key: B-
**kern	**text	**dynam	**kern	**text	**dynam	**kern	**text	**dynam	**kern	**text	**dynam	**kern	**text	**dynam
*part5	*part5	*part5	*part4	*part4	*part4	*part3	*part3	*part3	*part2	*part2	*part2	*part1	*part1	*part1
*staff5	*staff5	*	*staff4	*staff4	*	*staff3	*staff3	*	*staff2	*staff2	*	*staff1	*staff1	*
*I"BASSO	*	*	*I"TENORI	*	*	*I"TENORI	*	*	*I"SOPRANI	*	*	*I"SOPRANI	*	*
*>[A,B,B,C]	*	*	*>[A,B,B,C]	*	*	*>[A,B,B,C]	*	*	*>[A,B,B,C]	*	*	*>[A,B,B,C]	*	*
*>A	*	*	*>A	*	*	*>A	*	*	*>A	*	*	*>A	*	*
*Ibass	*	*	*Itenor	*	*	*Itenor	*	*	*Isoprn	*	*	*Isoprn	*	*
*ICvox	*	*	*ICvox	*	*	*ICvox	*	*	*ICvox	*	*	*ICvox	*	*
*clefF4	*	*	*clefC4	*	*	*clefC4	*	*	*clefC1	*	*	*clefC1	*	*
*k[b-e-]	*	*	*k[b-e-]	*	*	*k[b-e-]	*	*	*k[b-e-]	*	*	*k[b-e-]	*	*
*B-:	*	*	*B-:	*	*	*B-:	*	*	*B-:	*	*	*B-:	*	*
*M3/4	*	*	*M3/4	*	*	*M3/4	*	*	*M3/4	*	*	*M3/4	*	*
=1	=1	=1	=1	=1	=1	=1	=1	=1	=1	=1	=1	=1	=1	=1
!!LO:TX:B:a:t=Andante
!!LO:TX:t=P:problem:brak wyświetlania klamr
!	!	!	!	!	!	!	!	!	!LO:TX:t=P:problem:kolejność znaków:e-b-	!	!	!LO:TX:t=P:problem:kolejność znaków:e-b-	!	!
!	!	!	!	!	!	!	!	!	!	!	!	!LO:TX:a:t=dolce	!	!LO:DY:a
[2.BB-/	Twór-	<	[2.B-\	Twór-	<	[2.d\	Twór-	<	[2.f/	Twór-	<	[2.b-\	Twór-	p <
.	.	[ >	.	.	[ >	.	.	[ >	.	.	[ >	.	.	[ >
.	.	]	.	.	]	.	.	]	.	.	]	.	.	]
=2	=2	=2	=2	=2	=2	=2	=2	=2	=2	=2	=2	=2	=2	=2
4BB-/]	.	.	4B-\]	.	.	8.d\L]	.	.	8.f/L]	.	.	8.b-\L]	.	.
.	.	.	.	.	.	16B-\Jk	.	.	16d/Jk	.	.	16f\Jk	.	.
4BB-`/	-co	.	4B-`\	-co	.	4B-`\	-co	.	4d`/	-co	.	4f`\	-co	.
4r	.	.	4r	.	.	4r	.	.	4r	.	.	4r	.	.
=3	=3	=3	=3	=3	=3	=3	=3	=3	=3	=3	=3	=3	=3	=3
!	!	!	!LO:TX:t=P:problem:w nawiasach kwadratowych rozwinięto skrótowy zapis ze źródła	!	!	!LO:TX:t=P:problem:w nawiasach kwadratowych rozwinięto skrótowy zapis ze źródła	!	!	!LO:TX:t=P:problem:w nawiasach kwadratowych rozwinięto skrótowy zapis ze źródła	!	!	!	!	!
4BB-/	Twór-	.	(8.B-/L	[Twór-	.	4B-\	[Twór-	.	(8.f/L	[Twór-	.	(8.dd\L	Twór-	.
.	.	.	16F/Jk)	.	.	.	.	.	16d/Jk)	.	.	16b-\Jk)	.	.
4BB-/	-co	.	4F/	-co	.	4B-\	-co	.	4d/	-co	.	4b-\	-co	.
4r	.	.	4r	.	.	4r	.	.	4r	.	.	4r	.	.
=4	=4	=4	=4	=4	=4	=4	=4	=4	=4	=4	=4	=4	=4	=4
4E-\	na-	.	4G/	na-	.	4.G/	na-	.	4.e-/	na-	.	4.cc\	na-	.
4E-\	-ro-	.	4G/	-ro-	.	.	.	.	.	.	.	.	.	.
.	.	.	.	.	.	8c\	-ro-	.	8e-/	-ro-	.	8ee-\	-ro-	.
8F\	-do-	.	8F/	-do-	.	8c\	-do-	.	8e-/	-do-	.	8a\	-do-	.
8F\	-wey	.	8F/	-wey	.	(16B-\LL	-wey	.	8e-/	-wey	.	(16b-\LL	-wey	.
.	.	.	.	.	.	16A\JJ)	.	.	.	.	.	16cc\JJ)	.	.
=5	=5	=5	=5	=5	=5	=5	=5	=5	=5	=5	=5	=5	=5	=5
.	.	.	.	.	.	8qA/	.	.	8qe-/	.	.	8qcc/	.	.
8BB-/	Sce-	.	8F/	Sce-	.	8B-\	Sce-	.	8d/	Sce-	.	4b-\	Sce-	.
8BB-/	-ny	.	8F/	-ny	.	8B-\	-ny	.	8d/	-ny]	.	.	.	.
(2A-X^\	Twór-	.	[2B-^\	Twór-	.	(2d^\	Twór-	.	(2f^>/	Twór-	.	8b-\	-ny	.
.	.	.	.	.	.	.	.	.	.	.	.	8r	.	.
.	.	.	.	.	.	.	.	.	.	.	.	4r	.	.
=6	=6	=6	=6	=6	=6	=6	=6	=6	=6	=6	=6	=6	=6	=6
4G\)	-co	.	4B-\]	-co	.	4e-\)	-co	.	4g/)	-co	.	8.ee-\L	Twor-	.
.	.	.	.	.	.	.	.	.	.	.	.	16b-\Jk	.	.
(2F^\	Twór-	.	[2B-^\	Twór-	.	(2d^\	Twór-	.	(2a-X^\	[Twór-	.	4b-\	-co	.
.	.	.	.	.	.	.	.	.	.	.	.	4r	.	.
=7	=7	=7	=7	=7	=7	=7	=7	=7	=7	=7	=7	=7	=7	=7
4E-\)	-co	.	4B-\]	-co	.	4e-\)	-co	.	4g\)	-co]	.	(4.gg\	na-	.
4r	.	.	4r	.	.	4r	.	.	4r	.	.	.	.	.
.	.	.	.	.	.	.	.	.	.	.	.	16ff\LL	.	.
.	.	.	.	.	.	.	.	.	.	.	.	16ee-\JJ)	.	.
!	!	!	!	!	!	!	!	!	!	!	!	!LO:TUP:a:problem:klamra łukowa	!	!
4r	.	.	4r	.	.	4r	.	.	4r	.	.	12dd\L	-ro-	.
.	.	.	.	.	.	.	.	.	.	.	.	12ee-\	.	.
.	.	.	.	.	.	.	.	.	.	.	.	12cc\J	.	.
=8	=8	=8	=8	=8	=8	=8	=8	=8	=8	=8	=8	=8	=8	=8
4.F\	na-	.	4.d\	na-	.	4.d\	na-	.	4.f/	na-	.	2b-\	-do-	.
8F\	-ro-	.	8d\	-ro-	.	8d\	-ro-	.	8f/	-ro-	.	.	.	.
8F\	-do-	.	8c\	-do-	.	8e-\	-do-	.	8f/	-do-	.	4a\	-wey	.
8F\	-wey	.	8c\	-wey	.	8e-\	-wey	.	8f/	-wey	.	.	.	.
!!LO:LB:g=original
=9	=9	=9	=9	=9	=9	=9	=9	=9	=9	=9	=9	=9	=9	=9
.	.	.	8qc/	.	.	8qc/	.	.	.	.	.	8qa/	.	.
8B-\	Sce-	.	4B-\	Sce-	.	4d\	Sce-	.	4f/	Sce-	.	4b-\	Sce-	.
8BB-/	-ny	.	.	.	.	.	.	.	.	.	.	.	.	.
8B-\	na-	.	8B-\	-ny]	.	8d\	-ny]	.	8f/	-ny	.	8b-\	-ny	.
16B-\LL	-ro-	.	8r	.	.	8r	.	.	8r	.	.	8r	.	.
16A\JJ	.	.	.	.	.	.	.	.	.	.	.	.	.	.
8B-\	-do-	.	4r	.	.	4r	.	.	4r	.	.	4r	.	.
16B-\LL	-wey	.	.	.	.	.	.	.	.	.	.	.	.	.
16A\JJ	.	.	.	.	.	.	.	.	.	.	.	.	.	.
=10	=10	=10	=10	=10	=10	=10	=10	=10	=10	=10	=10	=10	=10	=10
!	!	!	!	!	!	!	!	!	!	!	!	!	!	!LO:DY:a
8B-\	Sce-	.	2.r	.	.	2d\	Chwa-	.	2.r	.	.	2b-\	Chwa-	<
8BB-/	-ny	.	.	.	.	.	.	.	.	.	.	.	.	.
!LO:TX:t=P:problem:w nawiasach kwadratowych rozwinięto skrótowy zapis ze źródła	!	!	!	!	!	!	!	!	!	!	!	!	!	!
8B-\	[na-	.	.	.	.	.	.	.	.	.	.	.	.	.
16B-\LL	-ro-	.	.	.	.	.	.	.	.	.	.	.	.	.
16A\JJ	.	.	.	.	.	.	.	.	.	.	.	.	.	.
8B-\	-do-	.	.	.	.	4d\	-ło	.	.	.	.	4b-\	-ło	.
16B-\LL	-wey	.	.	.	.	.	.	.	.	.	.	.	.	.
16A\JJ	.	.	.	.	.	.	.	.	.	.	.	.	.	.
=11	=11	=11	=11	=11	=11	=11	=11	=11	=11	=11	=11	=11	=11	=11
8B-\	Sce-	.	2.r	.	.	2f\	pol-	.	4r	.	.	2dd\	pol-	.
8BB-/	-ny]	.	.	.	.	.	.	.	.	.	.	.	.	.
8B-\	chwa-	.	.	.	.	.	.	.	8b-\	Chwa-	.	.	.	.
16B-\LL	-ło	.	.	.	.	.	.	.	16b-\LL	-ło	.	.	.	.
16A\JJ	.	.	.	.	.	.	.	.	16a\JJ	.	.	.	.	.
8B-\	pol-	.	.	.	.	4f\	-skiey	.	8b-\	pol-	.	4dd\	-skiey	[
16B-\LL	-skiey	.	.	.	.	.	.	.	16b-\LL	-skiey	.	.	.	.
16A\JJ	.	.	.	.	.	.	.	.	16a\JJ	.	.	.	.	.
=12	=12	=12	=12	=12	=12	=12	=12	=12	=12	=12	=12	=12	=12	=12
2B-\	Mel-	.	2d\	Mel-	.	2f\	Mel-	.	2b-\	Mel-	.	2dd\	Mel-	.
4A\	-po-	.	4c\	-po-	.	4c\	-po-	.	4cc\	-po-	.	4ff#X\	-po-	.
=13	=13	=13	=13	=13	=13	=13	=13	=13	=13	=13	=13	=13	=13	=13
4G\	-me-	.	4B-\	-me-	.	4d\	-me-	.	4g/	-me-	.	4gg\	-me-	.
8G\	-ny	.	8B-\	-ny	.	8d\	-ny	.	8g/	-ny	.	8gg\	-ny	.
8r	.	.	8r	.	.	8r	.	.	8r	.	.	8r	.	.
4r	.	.	4r	.	.	4r	.	.	4r	.	.	4r	.	f
=14	=14	=14	=14	=14	=14	=14	=14	=14	=14	=14	=14	=14	=14	=14
!	!	!	!	!	!	!	!	!	!	!	!LO:DY:a	!	!	!
2.C/	Chwa-	.	(2c\	[Chwa-	.	(2en\	[Chwa-	.	(2g\	[Chwa-	f	(2een\	Chwa-	.
.	.	.	8.Bn\L	.	.	8.d\L	.	.	8.a-\L	.	.	8.ff\L	.	.
.	.	.	16c\Jk)	.	.	16e\Jk)	.	.	16g\Jk)	.	.	16ee\Jk)	.	.
=15	=15	=15	=15	=15	=15	=15	=15	=15	=15	=15	=15	=15	=15	=15
2C/	-ło	.	2c\	-ło	.	2en\	-ło	.	2g\	-ło	.	2een\	-ło	.
4r	.	.	4r	.	.	4r	.	.	4r	.	.	4r	.	.
=16	=16	=16	=16	=16	=16	=16	=16	=16	=16	=16	=16	=16	=16	=16
4.F\	pol-	.	4.f\	pol-	.	4.f\	pol-	.	4.f/	pol-	.	4.ff\	pol-	.
8c\	-skiey	.	8c\	-skiey	.	8c\	-skiey	.	8cc\	-skiey	.	8cc\	-skiey	.
8A\	Mel-	.	8A/	Mel-	.	8A\	Mel-	.	8a\	Mel-	.	8a\	Mel-	.
8F\	-po-	.	8F/	-po-	.	8F/	-po-	.	8f/	-po-	.	8f/	-po-	.
=17	=17	=17	=17	=17	=17	=17	=17	=17	=17	=17	=17	=17	=17	=17
4c\	-me-	.	4c\	-me-	.	4c\	-me-	.	4cc\	-me-	.	4cc\	-me-	.
!	!	!	!	!	!	!	!	!	!	!	!	!	!	!LO:DY:a
8c\	-ny	.	8c\	-ny]	.	8c\	-ny]	.	8cc\	-ny]	.	8cc\	-ny	p
!	!	!	!	!	!	!	!	!	!	!	!	!LO:TX:a:i:t=dol&colon;	!	!
8r	.	.	8r	.	.	8r	.	.	8r	.	.	8r	.	.
4r	.	.	4r	.	.	4r	.	.	4a\	My	.	4cc\	My	.
!!LO:PB:g=original
=18	=18	=18	=18	=18	=18	=18	=18	=18	=18	=18	=18	=18	=18	=18
2.r	.	.	2.r	.	.	2.r	.	.	4a\	Szcze-	.	4cc\	Szcze-	.
.	.	.	.	.	.	.	.	.	8f/	-py	.	8a\	-py	.
.	.	.	.	.	.	.	.	.	8f/	twe-	.	8a\	twe-	.
.	.	.	.	.	.	.	.	.	8g/	-go	.	8b-\	-go	.
.	.	.	.	.	.	.	.	.	8a/	sta-	.	8cc\	sta-	.
=19	=19	=19	=19	=19	=19	=19	=19	=19	=19	=19	=19	=19	=19	=19
2.r	.	.	4r	.	.	4r	.	.	4b-\	-ra-	.	4dd\	-ra-	.
.	.	.	4r	.	.	4r	.	.	4a\	-nia	.	4cc\	-nia	.
.	.	.	4A\	My	.	4c\	My	.	4r	.	.	4r	.	.
=20	=20	=20	=20	=20	=20	=20	=20	=20	=20	=20	=20	=20	=20	=20
4r	.	.	4A\	[Szcze-	.	4c\	Szcze-	.	2.r	.	.	2.r	.	.
4r	.	.	8A\	-py	.	8c\	-py	.	.	.	.	.	.	.
.	.	.	8F/	twe-	.	8A\	twe-	.	.	.	.	.	.	.
4F\	My	.	8G/	-go	.	8B-\	-go	.	.	.	.	.	.	.
.	.	.	8A/	sta-	.	8c\	sta-	.	.	.	.	.	.	.
=21	=21	=21	=21	=21	=21	=21	=21	=21	=21	=21	=21	=21	=21	=21
4F\	Szcze-	.	4B-\	-ra-	.	4d\	-ra-	.	2.r	.	.	2.r	.	.
8F\	-py	.	4A\	-nia	.	4c\	-nia	.	.	.	.	.	.	.
8E-X\	twe-	.	.	.	.	.	.	.	.	.	.	.	.	.
8D/	-go	.	4r	.	.	4r	.	.	.	.	.	.	.	.
8C/	sta-	.	.	.	.	.	.	.	.	.	.	.	.	.
=22	=22	=22	=22	=22	=22	=22	=22	=22	=22	=22	=22	=22	=22	=22
4BB-/	-ra-	.	8r	.	.	8r	.	.	8r	.	.	8r	.	.
.	.	.	8B-\	Nie-	.	8d\	Nie-	.	8b-\	[Nie-	.	8dd\	Nie-	.
8BB-/	-nia	.	4B-\	-sie-	.	4d\	-sie-	.	4b-\	-sie-	.	4dd\	-sie-	.
8BB-/	Nie-	.	.	.	.	.	.	.	.	.	.	.	.	.
8BB-/	-sie-	.	4B-\	-my	.	4d\	-my	.	4b-\	-my	.	4dd\	-my	.
8BB-/	-my	.	.	.	.	.	.	.	.	.	.	.	.	.
=23	=23	=23	=23	=23	=23	=23	=23	=23	=23	=23	=23	=23	=23	=23
4C/	ci	.	4A\	ci	.	4c\	ci	.	4a\	ci	.	4cc\	ci	.
4C/	win-	.	4A\	win-	.	4c\	win-	.	4a\	win-	.	4cc\	win-	.
4C/	-szo-	.	4G/	-szo-	.	4en\	-szo-	.	4g\	-szo-	.	4b-\	-szo-	.
=24	=24	=24	=24	=24	=24	=24	=24	=24	=24	=24	=24	=24	=24	=24
!	!	!	!	!	!	!LO:SIC:v:s=4en\	!	!	!	!	!	!	!	!
4F\	-wa-	.	(4G/	-wa-	.	4e-\	-wa-	.	4g\	-wa-	.	(4b-\	-wa-	.
8F\	-nia	.	8A/)	-nia	.	8f\	-nia	.	8f/	-nia]	.	8a\)	-nia	.
8F\	My	.	8r	.	.	8r	.	.	8f/	My	.	8r	.	.
8F\	Szcze-	.	4A\	My	.	4c\	My	.	8f/	Szcze-	.	4r	.	.
8F\	-py	.	.	.	.	.	.	.	8f/	-py	.	.	.	.
=25	=25	=25	=25	=25	=25	=25	=25	=25	=25	=25	=25	=25	=25	=25
4F\	twe-	.	4A\	Szcze-	.	4c\	Szcze-	.	4f/	twe-	.	2.r	.	.
4F\	-go	.	8A\	-py	.	8c\	-py	.	4f/	-go	.	.	.	.
.	.	.	8F/	twe-	.	8A\	twe-	.	.	.	.	.	.	.
4F\	sta-	.	8G/	-go	.	8B-\	-go	.	4f/	sta-	.	.	.	.
.	.	.	8A/	sta-	.	8c\	sta-	.	.	.	.	.	.	.
=26	=26	=26	=26	=26	=26	=26	=26	=26	=26	=26	=26	=26	=26	=26
4F\	-ra-	.	4B-\	-ra-	.	4d\	-ra-	.	4f/	-ra-	.	4r	.	.
8F\	-nia	.	8A\	-nia	.	8c\	-nia	.	8f/	-nia	.	4r	.	.
8r	.	.	8F/	My	.	8f\	[My	.	8r	.	.	.	.	.
4r	.	.	8F/	Szcze-	.	8f\	Szcze-	.	4a\	[My	.	4cc\	My	.
.	.	.	8F/	-py	.	8f\	-py	.	.	.	.	.	.	.
=27	=27	=27	=27	=27	=27	=27	=27	=27	=27	=27	=27	=27	=27	=27
4r	.	.	4F/	twe-	.	4f\	twe-	.	4a\	Szcze-	.	4cc\	Szcze-	.
4r	.	.	4F/	-go	.	4f\	-go	.	8a\	-py	.	8cc\	-py	.
.	.	.	.	.	.	.	.	.	8f\	twe-	.	8a\	twe-	.
4F\	My	.	4F/	sta-	.	4f\	sta-	.	8g\	-go	.	8b-\	-go	.
.	.	.	.	.	.	.	.	.	8a\	sta-	.	8cc\	sta-	.
!!LO:LB:g=original
=28	=28	=28	=28	=28	=28	=28	=28	=28	=28	=28	=28	=28	=28	=28
4F\	Szcze-	.	4F/	-ra-	.	4f\	-ra-	.	4b-\	-ra-	.	4dd\	-ra-	.
8F\	-py	.	4F/	-nia	.	4f\	-nia]	.	4a\	-nia	.	4cc\	-nia	.
8E-X\	twe-	.	.	.	.	.	.	.	.	.	.	.	.	.
8D/	-go	.	4r	.	.	4r	.	.	4r	.	.	4r	.	.
8C/	sta-	.	.	.	.	.	.	.	.	.	.	.	.	.
=29	=29	=29	=29	=29	=29	=29	=29	=29	=29	=29	=29	=29	=29	=29
4BB-/	-ra-	.	8r	.	.	8r	.	.	8r	.	.	8r	.	.
.	.	.	8B-\	Nie-	.	8d\	Nie-	.	8b-\	Nie-	.	8dd\	Nie-	.
8BB-/	-nia	.	4B-\	-sie-	.	4d\	-sie-	.	4b-\	-sie-	.	4dd\	-sie-	.
8BB-/	Nie-	.	.	.	.	.	.	.	.	.	.	.	.	.
8BB-/	-sie-	.	4B-\	-my	.	4d\	-my	.	4b-\	-my	.	4dd\	-my	.
8BB-/	-my	.	.	.	.	.	.	.	.	.	.	.	.	.
=30	=30	=30	=30	=30	=30	=30	=30	=30	=30	=30	=30	=30	=30	=30
4C/	ci	.	4A\	ci	.	4c\	ci	.	4a\	ci	.	4cc\	ci	.
4C/	win-	.	4A\	win-	.	4c\	win-	.	4a\	win-	.	4cc\	win-	.
4C/	-szo-	.	4G/	-szo-	.	4en\	-szo-	.	4g\	-szo-	.	4b-\	-szo-	.
=31	=31	=31	=31	=31	=31	=31	=31	=31	=31	=31	=31	=31	=31	=31
!	!	!	!	!	!	!	!	!	!	!	!	!	!	!LO:DY:a
2C#X/	-wa-	.	2G/	-wa-	.	2en\	-wa-	.	2g\	-wa-	.	(2b-\	-wa-	>
4C#/	-nia	.	4A/	-nia	.	4e\	-nia	.	4g\	-nia	.	4a\)	-nia	]
=32	=32	=32	=32	=32	=32	=32	=32	=32	=32	=32	=32	=32	=32	=32
!	!	!	!	!	!	!	!	!	!	!	!	!	!	!LO:DY:a
4D/	to-	.	4A/	to-	.	4f\	to-	.	4f/	to-	.	4a\	to-	f
8D/	-bie	.	8A/	-bie]	.	8f\	-bie	.	8f/	-bie	.	8a\	-bie	.
8r	.	.	8r	.	.	8r	.	.	8r	.	.	8r	.	.
4BB-/	nie-	.	4r	.	.	4f\	nie-	.	4b-\	nie-	.	4dd\	nie-	.
=33	=33	=33	=33	=33	=33	=33	=33	=33	=33	=33	=33	=33	=33	=33
4C/	-sie-	.	8r	.	.	4.f\	-sie-	.	4.a\	-sie-	.	4.dd\	-sie-	.
.	.	.	8c\	nie-	.	.	.	.	.	.	.	.	.	.
4C/	-my	.	8A\	-sie-	.	.	.	.	.	.	.	.	.	.
.	.	.	8F/	-my	.	8c\	-my	.	8a\	-my	.	8cc\	-my	.
8C/	win-	.	8B-\	win-	.	8c\	win-	.	8g\	win-	.	8een\	win-	.
8C/	-szo-	.	8B-\	-szo-	.	8c\	-szo-	.	8g\	-szo-	.	8ee\	-szo-	.
=34	=34	=34	=34	=34	=34	=34	=34	=34	=34	=34	=34	=34	=34	=34
!	!	!	!	!	!	!	!	!	!	!	!	!	!	!LO:DY:a
2BBn/	-wa-	.	2A-X\	-wa-	.	2d\	-wa-	.	2f/	-wa-	.	2ff\	-wa-	>
4BB/	-nia	.	4A-\	-nia	.	4d\	-nia	.	4f/	-nia	.	4ff\	-nia	]
=35	=35	=35	=35	=35	=35	=35	=35	=35	=35	=35	=35	=35	=35	=35
!	!	!	!	!	!	!	!	!	!	!	!	!	!	!LO:DY:a
2C/	win-	.	2An\	[win-	.	2c\	win-	.	2a\	win-	.	2ff\	win-	pp
4C/	-szo-	.	4B-\	-szo-	.	4c\	-szo-	.	4g\	-szo-	.	4een\	-szo-	.
=36	=36	=36	=36	=36	=36	=36	=36	=36	=36	=36	=36	=36	=36	=36
4FF/ 4F	-wa-	.	4A\	-wa-	.	4c\	-wa-	.	4a\	-wa-	.	4ff\	-wa-	.
8FF/ 8F	-nia	.	8A\	-nia]	.	8c\	-nia	.	8a\	-nia]	.	8ff\	-nia	.
8r	.	.	8r	.	.	8r	.	.	8r	.	.	8r	.	.
!LO:TX:b:t=V. S.:note=verte subito	!	!	!	!	!	!	!	!	!	!	!	!	!	!
4r	.	.	4r	.	.	4r	.	.	4r	.	.	4r	.	.
!!LO:PB:g=original
=37!|:	=37!|:	=37!|:	=37!|:	=37!|:	=37!|:	=37!|:	=37!|:	=37!|:	=37!|:	=37!|:	=37!|:	=37!|:	=37!|:	=37!|:
*>B	*	*	*>B	*	*	*>B	*	*	*>B	*	*	*>B	*	*
!	!	!	!	!	!	!	!	!	!	!	!	!LO:TX:a:t=bis.	!	!
!	!	!	!	!	!	!	!	!	!	!	!	!LO:TX:a:t=sotta voce\ndeklamując	!	!
4F\	Dłu-	.	4F/	Dłu-	.	4F/	Dłu-	.	4f/	Dłu-	.	4f/	Dłu-	.
4F\	-go	.	4F/	-[go	.	4F/	-go	.	4f/	-[go	.	4f/	-go	.
4F\	szczę-	.	4F/	szczę-	.	4F/	szczę-	.	4f/	szczę-	.	4f/	szczę-	.
=38	=38	=38	=38	=38	=38	=38	=38	=38	=38	=38	=38	=38	=38	=38
(8.G\L	-śli-	.	(8.G/L	-śli-	.	(8.G/L	-śli-	.	(8.g/L	-śli-	.	(8.g/L	-śli-	.
16F\Jk)	.	.	16F/Jk)	.	.	16F/Jk)	.	.	16f/Jk)	.	.	16f/Jk)	.	.
4F\	-wy	.	4F/	-wy	.	4F/	-wy	.	4f/	-wy	.	4f/	-wy	.
8r	.	.	4r	.	.	4r	.	.	8r	.	.	8r	.	.
!	!	!LO:DY:a	!	!	!	!	!	!	!	!	!	!	!	!LO:DY:a
8F\	żyi	f	.	.	.	.	.	.	8a\	żyi	.	8ff\	żyi	f
=39	=39	=39	=39	=39	=39	=39	=39	=39	=39	=39	=39	=39	=39	=39
!	!	!	!	!	!	!	!	!LO:DY:a	!	!	!	!	!	!
2F\	z na-	.	8r	.	.	8r	.	f	(8.a\L	z na-	.	(8.ff\L	z na-	.
.	.	.	8A/	żyi	.	8c\	żyi	.	.	.	.	.	.	.
.	.	.	.	.	.	.	.	.	16f\Jk)	.	.	16cc\Jk)	.	.
.	.	.	(8.A/L	z na-	.	8.c\L	z na-	.	4f\	-mi	.	4cc\	-mi	.
.	.	.	16F/Jk)	.	.	16A\Jk	.	.	.	.	.	.	.	.
4F\	-mi	.	4F/	-mi	.	4A\	-mi	.	4r	.	.	4r	.	.
=40	=40	=40	=40	=40	=40	=40	=40	=40	=40	=40	=40	=40	=40	=40
!LO:TX:a:t=sotta voce	!	!	!	!	!	!	!	!LO:DY:a	!	!	!	!LO:TX:a:t=sotta voce	!	!
4F\	Dłu-	.	4F/	Dłu-	.	4F/	Dłu-	p	4f/	Dłu-	.	4f/	Dłu-	.
4F\	-go	.	4F/	-go	.	4F/	-go	.	4f/	-go	.	4f/	-go	.
4F\	szczę-	.	4F/	szczę-	.	4F/	szczę-	.	4f/	szczę-	.	4f/	szczę-	.
=41	=41	=41	=41	=41	=41	=41	=41	=41	=41	=41	=41	=41	=41	=41
(8.G\L	-śli-	.	(8.G/L	-śli-	.	(8.G/L	-śli-	.	(8.g/L	-śli-	.	(8.g/L	-śli-	.
16F\Jk)	.	.	16F/Jk)	.	.	16F/Jk)	.	.	16f/Jk)	.	.	16f/Jk)	.	.
4F\	-wy	.	4F/	-wy	.	4F/	-wy	.	4f/	-wy	.	4f/	-wy	.
8r	.	.	8r	.	.	8r	.	.	4r	.	.	4r	.	.
!	!	!LO:DY:a	!	!	!	!	!	!LO:DY:a	!	!	!	!	!	!
8F\	żyi	f	8A/	żyi	.	8f\	żyi	f	.	.	.	.	.	.
=42	=42	=42	=42	=42	=42	=42	=42	=42	=42	=42	=42	=42	=42	=42
!	!	!	!	!	!	!	!LO:MO:mod=z na-	!	!	!	!	!	!	!
2E-X\	z na-	.	(8.A/L	z na-	.	(8.f\L	żna-	.	8r	.	.	8r	.	.
!	!	!	!	!	!	!	!	!	!	!	!	!	!	!LO:DY:a
.	.	.	.	.	.	.	.	.	(8a\	żyi	.	(8cc\	żyi	f
.	.	.	16F/Jk)	.	.	16c\Jk)	.	.	.	.	.	.	.	.
.	.	.	4F/	-mi	.	4c\	-mi	.	8.a\L	z na-	.	8.cc\L	ź na-	.
.	.	.	.	.	.	.	.	.	16f\Jk)	.	.	16a\Jk)	.	.
8E-\	-mi	.	8r	.	.	8r	.	.	8f/	-mi	.	8a\	-mi	.
8E-\	J	.	8F/	J	.	8A/	J	.	8f/	J	.	8cc\	J	.
=43	=43	=43	=43	=43	=43	=43	=43	=43	=43	=43	=43	=43	=43	=43
8D^>/	my	.	8A^>\	my	.	8A/	my	.	8f#X^>/	my	.	8dd^\	my	.
8D/	twych	.	8A\	twych	.	8A/	twych	.	8f#/	twych	.	8dd\	twych	.
4D^>/	lau-	.	4A^>\	lau-	.	4A^>/	lau-	.	4f#^>/	lau-	.	4dd^\	lau-	.
8D/	-rów	.	8A\	-rów	.	8A/	-rów	.	8f#/	-rów	.	8dd\	-rów	.
8D/	list-	.	8A\	list-	.	8A/	list-	.	8f#/	list-	.	8dd\	list-	.
=44	=44	=44	=44	=44	=44	=44	=44	=44	=44	=44	=44	=44	=44	=44
4C/	-ka-	.	4A\	-ka-	.	4c\	-ka-	.	4fn/	-ka-	.	4ee-X\	-ka-	.
8C/	-mi	.	8A\	-mi	.	8c\	-mi	.	8f/	-mi	.	8ee-\	-mi	.
8C/	J	.	8A\	J	.	8c\	J	.	8f/	J	.	8ee-\	J	.
8C^>/	my	.	8A^\	my	.	8c^\	my	.	8f^>/	my	.	8ee-^\	my	.
8C/	twych	.	8A\	twych	.	8c\	twych	.	8f/	twych	.	8ee-\	twych	.
=45	=45	=45	=45	=45	=45	=45	=45	=45	=45	=45	=45	=45	=45	=45
4BB-/	lau-	.	4B-\	lau-	.	4d\	[lau-	.	4f/	lau-	.	4dd\	lau-	.
4BB-/	-rów	.	4B-\	-rów	.	4d\	-rów	.	4f/	-rów	.	4dd\	-rów	.
4AA/	list-	.	4d\	list-	.	4d\	list]-	.	4f#X/	list]-	.	4cc\	list-	.
!!LO:LB:g=original
=46	=46	=46	=46	=46	=46	=46	=46	=46	=46	=46	=46	=46	=46	=46
4GG/	-ka-	.	4d\	-ka-	.	4d\	-ka-	.	4g\	-ka-	.	4b-\	-ka-	.
8GG/	-mi	.	8d\	-mi	.	8d\	-mi	.	8g\	-mi	.	8b-\	-mi	.
8r	.	.	8r	.	.	8r	.	.	8r	.	.	8r	.	.
!	!	!LO:DY:a	!	!	!	!	!	!LO:DY:a	!	!	!	!	!	!LO:DY:a
4G\	A	p	4B-\	[A	.	4d\	[A	p	4g\	[A	.	4b-\	A	p
=47	=47	=47	=47	=47	=47	=47	=47	=47	=47	=47	=47	=47	=47	=47
!	!	!LO:HP:b	!	!	!	!	!	!	!	!	!	!	!	!LO:DY:a
2G\	na-	<	2B-\	na-	.	2d\	na-	.	2g\	na-	.	2b-\	na-	<
4G\	-sza	.	4B-\	-sza	.	4d\	-sza]	.	4g\	-sza	.	4b-\	-sza	.
=48	=48	=48	=48	=48	=48	=48	=48	=48	=48	=48	=48	=48	=48	=48
4F\	wdzię-	.	4A-X\	wdzię-	.	4B-\	wdzię-	.	4b-\	wdzię-	.	4dd\	wdzię-	.
4F\	-czność	.	4A-\	-czność	.	4B-\	-czność	.	4b-\	-czność	.	4dd\	-czność	.
4F\	z twą	[	4A-\	z twą	.	4B-\	z twą	.	4b-\	z twą	.	4dd\	z twą	[
=49	=49	=49	=49	=49	=49	=49	=49	=49	=49	=49	=49	=49	=49	=49
!	!	!LO:DY:b	!	!	!	!	!	!	!	!	!	!	!	!LO:DY:a
4E-\	chwa-	f	4G/	chwa-	.	4B-\	chwa-	.	4b-\	chwa-	.	4ee-\	chwa-	f
8E-\	-łą	.	8G/	-łą	.	8B-\	-łą	.	8b-\	-łą	.	8ee-\	-łą	.
8r	.	.	8r	.	.	8r	.	.	8r	.	.	8r	.	.
!	!	!	!	!	!	!	!	!	!	!	!	!LO:TX:a:t=dolce	!	!
4E-\	na	.	4G/	na	.	4c\	na	.	4g\	na	.	4ee-\	na	.
=50	=50	=50	=50	=50	=50	=50	=50	=50	=50	=50	=50	=50	=50	=50
!LO:TX:b:t=dolce	!	!	!	!	!	!	!	!	!	!	!	!	!	!
2F\	wie-	.	8.B-\L	wie-	.	4d\	wie-	.	4f/	wie-	.	8.dd\L	wie-	.
.	.	.	16d\Jk	.	.	.	.	.	.	.	.	16b-\Jk	.	.
.	.	.	4d\	-ki	.	4d\	-ki	.	4f/	-ki	.	4b-\	-ki	.
4F\	-ki	.	4B-\	niech	.	8.d\L	niech	.	8.dd\L	niech	.	8.ff\L	niech	.
.	.	.	.	.	.	16f\Jk	.	.	16b-\Jk	.	.	16dd\Jk	.	.
=51	=51	=51	=51	=51	=51	=51	=51	=51	=51	=51	=51	=51	=51	=51
4F\	niech	.	2c\	bę-	.	2f\	bę-	.	2b-\	bę-	.	2cc\	bę-	.
4F\	bę-	.	.	.	.	.	.	.	.	.	.	.	.	.
4F\	-dzie	.	4c\	-dzie	.	4f\	-dzie	.	4a\	-dzie	.	4cc\	-dzie	.
=52	=52	=52	=52	=52	=52	=52	=52	=52	=52	=52	=52	=52	=52	=52
4BB-/ 4B-	trwa-	.	4B-\	trwa-	.	4f\	trwa-	.	4b-\	trwa-	.	4dd\	trwa-	.
8BB-/ 8B-	-łą	.	8B-\	-łą	.	8f\	-łą	.	8b-\	-łą	.	8dd\	-łą	.
8r	.	.	8r	.	.	8r	.	.	8r	.	.	8r	.	.
4r	.	.	4r	.	.	4r	.	.	4r	.	.	4r	.	.
=53:|!	=53:|!	=53:|!	=53:|!	=53:|!	=53:|!	=53:|!	=53:|!	=53:|!	=53:|!	=53:|!	=53:|!	=53:|!	=53:|!	=53:|!
*>C	*	*	*>C	*	*	*>C	*	*	*>C	*	*	*>C	*	*
!	!	!	!	!	!	!	!	!	!	!	!	!LO:TX:a:t=dolce	!	!LO:DY:a
[>2.BB-/	Twór-	.	[2.B-\	Twór-	.	(2.d\	Twór-	.	2.f/	Twór-	.	2.b-\	Twór-	p<
.	.	.	.	.	.	.	.	.	.	.	.	.	.	[ >
.	.	.	.	.	.	.	.	.	.	.	.	.	.	]
=54	=54	=54	=54	=54	=54	=54	=54	=54	=54	=54	=54	=54	=54	=54
4BB-/]	.	.	4B-\]	.	.	8.d\L	.	.	(8.f/L	.	.	(8.b-\L	.	.
.	.	.	.	.	.	16B-\Jk)	.	.	16d/Jk)	.	.	16f\Jk)	.	.
4BB-/	-co	.	4B-\	-co	.	4B-\	-co	.	4d/	-co	.	4f\	-co	.
4r	.	.	4r	.	.	4r	.	.	4r	.	.	4r	.	.
=55	=55	=55	=55	=55	=55	=55	=55	=55	=55	=55	=55	=55	=55	=55
4BB-/	Twór-	.	(8.B-/L	Twór-	.	4B-\	Twór-	.	(8.f/L	Twór-	.	(8.dd\L	Twór-	.
.	.	.	16F/Jk)	.	.	.	.	.	16d/Jk)	.	.	16b-\Jk)	.	.
4BB-/	-co	.	4F/	-co	.	4B-\	-co	.	4d/	-co	.	4b-\	-co	.
4r	.	.	4r	.	.	4r	.	.	4r	.	.	4r	.	.
=56	=56	=56	=56	=56	=56	=56	=56	=56	=56	=56	=56	=56	=56	=56
4E-\	na-	.	4G/	na-	.	4.G/	na-	.	4.e-/	na-	.	4.cc\	na-	.
4E-\	-ro-	.	4G/	-ro-	.	.	.	.	.	.	.	.	.	.
.	.	.	.	.	.	8c\	-ro-	.	8e-/	-ro-	.	8ee-\	-ro-	.
8F\	-do-	.	8F/	-do-	.	8c\	-do-	.	8e-/	-do-	.	8a\	-do-	.
8F\	-wey	.	8F/	-wey]	.	(16B-\LL	-wey	.	8e-/	-wey]	.	(16b-\LL	-wey	.
.	.	.	.	.	.	16A\JJ)	.	.	.	.	.	16cc\JJ)	.	.
!!LO:PB:g=original
=57	=57	=57	=57	=57	=57	=57	=57	=57	=57	=57	=57	=57	=57	=57
.	.	.	.	.	.	8qA/	.	.	8qe-/	.	.	8qcc/	.	.
8BB-/	Sce-	.	8F/	Sce-	.	8B-\	Sce-	.	8d/	Sce-	.	4b-\	Sce-	.
8BB-/	-ny	.	8F/	-ny	.	8B-\	-ny	.	8d/	-ny	.	.	.	.
(2A-X^\	twór-	.	(2B-\	twór-	.	(2d^<\	twór-	.	(2f^>/	twór-	.	8b-\	-ny	.
.	.	.	.	.	.	.	.	.	.	.	.	8r	.	.
.	.	.	.	.	.	.	.	.	.	.	.	4r	.	.
=58	=58	=58	=58	=58	=58	=58	=58	=58	=58	=58	=58	=58	=58	=58
4G\)	-co	.	4B-\)	-co	.	4e-\)	-co	.	4g/)	-co	.	8.ee-\L	twór-	.
.	.	.	.	.	.	.	.	.	.	.	.	16b-\Jk	.	.
*	*	*	*	*ij	*	*	*ij	*	*	*	*	*	*	*
(2F^\	twór-	.	(2B-\	twór-	.	(2d^<\	twór-	.	2a-X^>/	twór-	.	4b-\	-co	.
.	.	.	.	.	.	.	.	.	.	.	.	4r	.	.
=59	=59	=59	=59	=59	=59	=59	=59	=59	=59	=59	=59	=59	=59	=59
4E-\)	-co	.	4B-\)	-co	.	4e-\)	-co	.	4g/	-co	.	(4.gg\	na-	.
*	*	*	*	*Xij	*	*	*Xij	*	*	*	*	*	*	*
4r	.	.	4r	.	.	4r	.	.	4r	.	.	.	.	.
.	.	.	.	.	.	.	.	.	.	.	.	16ff\LL	.	.
.	.	.	.	.	.	.	.	.	.	.	.	16ee-\JJ	.	.
4r	.	.	4r	.	.	4r	.	.	4r	.	.	12dd\L	-ro-	.
.	.	.	.	.	.	.	.	.	.	.	.	12ee-\	.	.
.	.	.	.	.	.	.	.	.	.	.	.	12cc\J)	.	.
=60	=60	=60	=60	=60	=60	=60	=60	=60	=60	=60	=60	=60	=60	=60
4.F\	na-	.	4.d\	[na-	.	4.d\	na-	.	4.f/	na-	.	2b-\	-do-	.
8F\	-ro-	.	8d\	-ro-	.	8d\	-ro-	.	8f/	-ro-	.	.	.	.
8F\	-do-	.	8c\	-do-	.	8e-\	-do-	.	8f/	-do-	.	4a\	-wey	.
8F\	-wey	.	8c\	-wey	.	8e-\	-wey	.	8f/	-wey	.	.	.	.
=61	=61	=61	=61	=61	=61	=61	=61	=61	=61	=61	=61	=61	=61	=61
.	.	.	8qc/	.	.	8qe-/	.	.	.	.	.	8qa/	.	.
8B-\	Sce-	.	4B-\	Sce-	.	4d\	Sce-	.	4f/	Sce-	.	4b-\	Sce-	.
8BB-/	-ny	.	.	.	.	.	.	.	.	.	.	.	.	.
8B-\	na-	.	8B-\	-ny	.	8d\	-ny	.	8f/	-ny	.	8b-\	-ny	.
16B-\LL	-ro-	.	8r	.	.	8r	.	.	8r	.	.	8r	.	.
16A\JJ	.	.	.	.	.	.	.	.	.	.	.	.	.	.
8B-\	-do-	.	4r	.	.	4r	.	.	8r	.	.	8r	.	.
!	!	!	!	!	!	!	!	!	!	!	!	!	!	!LO:DY:a
16B-\LL	-wey	.	.	.	.	.	.	.	8f/	[żyi	.	8dd\	żyi	f
16A\JJ	.	.	.	.	.	.	.	.	.	.	.	.	.	.
=62	=62	=62	=62	=62	=62	=62	=62	=62	=62	=62	=62	=62	=62	=62
8B-\	Sce-	.	8r	.	.	8r	.	.	(8.f/L	z na-	.	(8.dd\L	z na-	.
!	!	!	!	!	!	!	!	!LO:DY:a	!	!	!	!	!	!
8BB-/	-ny	.	8F/	żyi	.	8d\	żyi	f	.	.	.	.	.	.
.	.	.	.	.	.	.	.	.	16d/Jk)	.	.	16b-\Jk)	.	.
!	!	!LO:DY:a	!	!	!	!	!	!	!	!	!	!	!	!
2BB-/	żyi	f	(8.F/L	z na-	.	(8.d\L	z na-	.	4d/	-mi	.	4b-\	-mi	.
.	.	.	16D/Jk)	.	.	16B-\Jk)	.	.	.	.	.	.	.	.
.	.	.	4D/	-mi	.	4B-\	-mi	.	8r	.	.	8r	.	.
.	.	.	.	.	.	.	.	.	8dd\	żyi	.	8ff\	żyi	.
=63	=63	=63	=63	=63	=63	=63	=63	=63	=63	=63	=63	=63	=63	=63
!	!	!LO:DY:a	!	!	!	!	!	!	!	!	!	!	!	!
2B-\	żyi	f	8r	.	.	8r	.	.	(8.dd\L	z na-	.	(8.ff\L	z na-	.
.	.	.	8d\	żyi	.	8f\	żyi	.	.	.	.	.	.	.
.	.	.	.	.	.	.	.	.	16b-\Jk)	.	.	16dd\Jk)	.	.
.	.	.	(8.d\L	z na-	.	(8.f\L	z na-	.	4b-\	-mi	.	4dd\	-mi	.
.	.	.	16B-\Jk)	.	.	16d\Jk)	.	.	.	.	.	.	.	.
4B-\	z twą	.	4B-\	-mi	.	4d\	-mi	.	8r	.	.	8r	.	.
.	.	.	.	.	.	.	.	.	8b-\ 8dd	z twą	.	8ff\	z twą	.
=64	=64	=64	=64	=64	=64	=64	=64	=64	=64	=64	=64	=64	=64	=64
!	!	!	!	!	!	!	!	!	!	!	!	!	!	!LO:DY:a
2.E-\	chwa-	.	8r	.	.	8r	.	.	[2.b-\ [2.ee-	chwa-	.	[2.gg\	chwa-	<[
.	.	.	8B-\ 8e-	z twą	.	8g\	z twą	.	.	.	.	.	.	.
.	.	.	2B-\ 2e-	chwa-	.	2g\	chwa-	.	.	.	.	.	.	.
=65	=65	=65	=65	=65	=65	=65	=65	=65	=65	=65	=65	=65	=65	=65
!	!	!	!	!	!	!	!	!	!	!	!	!	!	!LO:DY:a
4E-\	-łą	.	4B-\ 4e-	-łą]	.	4g\	-łą	.	4.b-\] 4.ee-]	-łą	.	4.gg\]	-łą	>
4r	.	.	4r	.	.	4r	.	.	.	.	.	.	.	.
!	!	!	!	!	!	!	!	!	!	!	!	!LO:TX:a:t=dolce	!	!
.	.	.	.	.	.	.	.	.	8g\	a	.	8ee-\	a	]
4r	.	.	4r	.	.	4r	.	.	8f/	na-	.	8dd\	na-	.
.	.	.	.	.	.	.	.	.	8e-/	-sza	.	8cc\	-sza	.
=66	=66	=66	=66	=66	=66	=66	=66	=66	=66	=66	=66	=66	=66	=66
2.r	.	.	4r	.	.	4r	.	.	8.d/L	wdzięcz-	.	8.b-\L	wdzięcz-	.
.	.	.	.	.	.	.	.	.	16e-/Jk	.	.	16cc\Jk	.	.
.	.	.	8r	.	.	8r	.	.	4d/	-ność	.	4b-\	-ność	.
.	.	.	8G/	a	.	8e-\	a	.	.	.	.	.	.	.
!	!	!	!	!	!	!LO:TX:a:t=dolce	!	!	!	!	!	!	!	!
.	.	.	8F/	na-	.	8d\	na-	.	4r	.	.	4r	.	.
.	.	.	8E-/	-sza	.	8c\	-sza	.	.	.	.	.	.	.
=67	=67	=67	=67	=67	=67	=67	=67	=67	=67	=67	=67	=67	=67	=67
4r	.	.	8.D/L	[wdzięcz-	.	8.B-\L	wdzięcz-	.	2.r	.	.	2.r	.	.
.	.	.	16E-/Jk	.	.	16c\Jk	.	.	.	.	.	.	.	.
8r	.	.	4D/	-ność	.	4B-\	-ność	.	.	.	.	.	.	.
8BB-/	a	.	.	.	.	.	.	.	.	.	.	.	.	.
8C/	na-	.	4r	.	.	4r	.	.	.	.	.	.	.	.
8D/	-sza	.	.	.	.	.	.	.	.	.	.	.	.	.
!!LO:LB:g=original
=68	=68	=68	=68	=68	=68	=68	=68	=68	=68	=68	=68	=68	=68	=68
4E-/	wdzię-	.	4r	.	.	4r	.	.	4r	.	.	4r	.	.
4C/	-czność	.	4r	.	.	4r	.	.	4r	.	.	4r	.	.
!	!	!LO:DY:a	!	!	!	!	!	!	!	!	!	!	!	!LO:DY:a
4F\	na	f	4A\	na	.	4c\	na	.	4f\ 4a	na	.	4cc\	na	f
=69	=69	=69	=69	=69	=69	=69	=69	=69	=69	=69	=69	=69	=69	=69
4.D\	wie-	.	4.B-\	wie-	.	4.f\	wie-	.	4.f\ 4.b-	wie-	.	4.ff\	wie-	.
8D\	-ki	.	8Bn\	-ki	.	8f\	-ki	.	8f\ 8bn	-ki	.	8ff\	-ki	.
8E-\	bę-	.	8c\	bę-	.	8e-\	bę-	.	8g\ 8cc	bę-	.	8ee-\	bę-	.
8E-\	-dzie	.	8c\	-dzie	.	8e-\	-dzie	.	8g\ 8cc	-dzie	.	8ee-\	-dzie	.
=70	=70	=70	=70	=70	=70	=70	=70	=70	=70	=70	=70	=70	=70	=70
4F\	trwa-	.	4B-X\	trwa-	.	4d\	trwa-	.	4f\ 4b-X	trwa-	.	4dd\	trwa-	.
4F\	-łą	.	4B-\	-łą	.	4d\	-łą	.	4f\ 4b-	-łą	.	4dd\	-łą	.
4F\	na	.	4A\	na	.	4c\	na	.	4f\ 4a	na	.	4cc\	na	.
=71	=71	=71	=71	=71	=71	=71	=71	=71	=71	=71	=71	=71	=71	=71
4.D\	wie-	.	4.B-\	wie-	.	4.f\	wie-	.	4.f\ 4.b-	wie-	.	4.ff\	wie-	.
!	!	!LO:DY:a	!	!	!	!	!	!	!	!	!	!	!	!
8D\	-ki	<	8Bn\	-ki	.	8f\	-ki	.	8f\ 8bn	-ki	.	8ff\	-ki	.
8E-\	bę-	.	8c\	bę-	.	8e-\	bę-	.	8g\ 8cc	bę-	.	8ee-\	bę-	.
8E-\	-dzie	.	8c\	-dzie	.	8e-\	-dzie	.	8g\ 8cc	-dzie	.	8ee-\	-dzie	.
=72	=72	=72	=72	=72	=72	=72	=72	=72	=72	=72	=72	=72	=72	=72
4F\	trwa-	.	4B-X\	trwa-	.	4d\	trwa-	.	4f\ 4b-X	trwa-	.	4dd\	trwa-	.
4F\	-łą	[	4B-\	-łą	.	4d\	-łą	.	4f\ 4b-	-łą	.	4dd\	-łą	.
8F\	bę-	.	8A\	bę-	.	8c\	bę-	.	8f\ 8a	bę-	.	8ff\	bę-	.
8F\	-dzie	.	8A\	-dzie	.	8c\	-dzie	.	8f\ 8a	-dzie	.	8ff\	-dzie	.
=73	=73	=73	=73	=73	=73	=73	=73	=73	=73	=73	=73	=73	=73	=73
4B-\	trwa-	.	4B-\	trwa-	.	4d\	trwa-	.	4f\ 4b-	trwa-	.	4b-\	trwa-	.
4B-\	-łą	.	4B-\	-łą	.	4d\	-łą	.	4f\ 4b-	-łą	.	4b-\	-łą	.
8r	.	.	8r	.	.	8r	.	.	8r	.	.	8r	.	.
!	!	!LO:DY:a	!	!	!	!	!	!	!	!	!	!	!	!LO:DY:a
8BB-/	żyi	ff	8F/	żyi	.	8f\	żyi	.	8b-\	żyi	.	8dd\	żyi	f
=74	=74	=74	=74	=74	=74	=74	=74	=74	=74	=74	=74	=74	=74	=74
4BB-/	z na-	.	8.F/L	z na-	.	(8.f\L	z na-	.	(8.b-\L	z na-	.	(8.dd\L	z na-	.
.	.	.	16B-/Jk	.	.	16d\Jk)	.	.	16f\Jk)	.	.	16b-\Jk)	.	.
4BB-/	-mi	.	4B-/	-mi	.	4d\	-mi	.	4f/	-mi	.	4b-\	-mi	.
8r	.	.	8r	.	.	8r	.	.	8r	.	.	8r	.	.
(8BB-/	żyi	.	8B-/	żyi	.	(8d\	żyi	.	(8dd\	żyi	.	(8ff\	żyi	.
=75	=75	=75	=75	=75	=75	=75	=75	=75	=75	=75	=75	=75	=75	=75
*	*	*	*^	*	*	*	*	*	*	*	*	*	*	*
4BB-/)	z na-	.	8.B-/L	8.B-\L	z na-	.	8.d\L)	z na-	.	8.dd\L)	z na-	.	8.ff\L)	z na-	.
.	.	.	16d/Jk	16F\Jk	.	.	16f\Jk	.	.	16b-\Jk	.	.	16dd\Jk	.	.
4BB-/	-mi	.	4d/	4F\	-mi	.	4f\	-mi	.	4b-\	-mi	.	4dd\	-mi	.
8r	.	.	8r	8r	.	.	8r	.	.	8r	.	.	8r	.	.
!	!	!	!	!	!	!	!	!	!	!	!	!	!LO:TX:a:t=Solo	!	!
8BB-/	żyi	.	8B-/	8F\	żyi	.	8d\	żyi	.	8dd\	żyi	.	8ff\	żyi	.
*	*	*	*v	*v	*	*	*	*	*	*	*	*	*	*	*
=76	=76	=76	=76	=76	=76	=76	=76	=76	=76	=76	=76	=76	=76	=76
*	*	*	*	*	*	*	*	*	*	*	*	*^	*	*
!	!	!LO:DY:a	!	!	!	!	!	!LO:DY:a	!	!	!	!	!	!	!LO:HP:b
[2.BB-/	z na-	<[	2.F/ [2.B-	z na-	.	[2.d\	z na-	<[	[2.b-\	z na-	.	[2.bb-/	2.dd\	z na-	<
=77	=77	=77	=77	=77	=77	=77	=77	=77	=77	=77	=77	=77	=77	=77	=77
!	!	!LO:DY:a	!	!	!	!	!	!LO:DY:a	!	!	!	!	!	!	!LO:HP:b
2.BB-/_	.	>]	2.F/ 2.B-_	.	.	2.d\_	.	>]	2.b-\_	.	.	2bb-/]	(2.dd\	.	[ >
.	.	.	.	.	.	.	.	.	.	.	.	8ff/L	.	.	.
.	.	.	.	.	.	.	.	.	.	.	.	8dd/J	.	.	.
=78	=78	=78	=78	=78	=78	=78	=78	=78	=78	=78	=78	=78	=78	=78	=78
2BB-/]	-mi	.	2F/ 2B-]	-mi]	.	2d\]	-mi	.	2b-\]	-mi]	.	2dd/	2b-\)	-mi	]
4r	.	.	4r	.	.	4r	.	.	4r	.	.	4r	4ryy	.	.
*	*	*	*	*	*	*	*	*	*	*	*	*v	*v	*	*
==	==	==	==	==	==	==	==	==	==	==	==	==	==	==
*-	*-	*-	*-	*-	*-	*-	*-	*-	*-	*-	*-	*-	*-	*-
!!!system-decoration: {(s1)(s2)}{(s3)(s4)}s5
!!!ENC: Filip Voros
!!!END: 2022-08-24
!!!ENC: Kamil Watkowski
!!!END: 2022-09-30
!!!RDF**kern: > = above
!!!RDF**kern: < = below
!!!YEC: Copyright 2022 Narodowy Instytut Fryderyka Chopina (https://polishscores.org)
!!!YEM: License CC-BY-4.0 (https://creativecommons.org/licenses/by/4.0)
